Sources/FrostedUI/Resources/Icons.xcassets/micOn32.imageset/mic-on-32.svg

<svg width="32" height="32" viewBox="0 0 32 32" fill="none" xmlns="http://www.w3.org/2000/svg" data-fui-icon="true">
  <path
    d="M27.9995 13.25C28.4137 13.25 28.7495 13.5858 28.7495 14C28.7495 20.6297 23.6893 26.076 17.2205 26.6905C16.9568 26.7156 16.7495 26.9335 16.7495 27.1984V28.5C16.7495 28.9142 16.4137 29.25 15.9995 29.25C15.5855 29.2498 15.2495 28.9141 15.2495 28.5V27.1984C15.2495 26.9335 15.0422 26.7156 14.7785 26.6905C8.3099 26.0757 3.24951 20.6296 3.24951 14C3.24951 13.5859 3.58551 13.2502 3.99951 13.25C4.41373 13.25 4.74951 13.5858 4.74951 14C4.74951 20.2131 9.78652 25.2498 15.9995 25.25C22.2127 25.25 27.2495 20.2132 27.2495 14C27.2495 13.5859 27.5855 13.2502 27.9995 13.25ZM15.9995 2C20.4178 2 23.9995 5.58172 23.9995 10V14C23.9995 18.4183 20.4178 22 15.9995 22C11.7197 21.9998 8.22473 18.6387 8.01025 14.4121L7.99951 14V10C7.99951 5.58187 11.5814 2.00025 15.9995 2ZM15.9995 3.5C12.4099 3.50025 9.49951 6.4103 9.49951 10V14C9.49951 17.5897 12.4099 20.4998 15.9995 20.5C19.5894 20.5 22.4995 17.5899 22.4995 14V10C22.4995 6.41015 19.5894 3.5 15.9995 3.5Z"
    fill="currentColor"
  />
</svg>

<svg xmlns="http://www.w3.org/2000/svg" width="32" height="32" fill="none" data-fui-icon="true" viewBox="0 0 32 32"><path fill="currentColor" d="M28 13.25a.75.75 0 0 1 .75.75c0 6.63-5.06 12.076-11.53 12.69a.516.516 0 0 0-.47.508V28.5a.75.75 0 0 1-1.5 0v-1.302a.516.516 0 0 0-.472-.508C8.31 26.077 3.25 20.63 3.25 14a.75.75 0 0 1 1.5 0c0 6.213 5.037 11.25 11.25 11.25S27.25 20.213 27.25 14a.75.75 0 0 1 .75-.75M16 2a8 8 0 0 1 8 8v4a8 8 0 0 1-15.99.412L8 14v-4a8 8 0 0 1 8-8m0 1.5A6.5 6.5 0 0 0 9.5 10v4a6.5 6.5 0 0 0 13 0v-4A6.5 6.5 0 0 0 16 3.5"/></svg>
